X:1
T:Dirge (Handel), 88.88.88
T:Dirge (Handel), 88.88.88
T:From George Frederick Handel (1685-1759)
T:Public Domain Courtesy of the Cyber Hymnal™
C:From George Frederick Handel (1685-1759)
Z:Public Domain
Z:Courtesy of the Cyber Hymnal™
%%score ( 1 2 ) ( 3 4 )
L:1/8
Q:1/4=115
M:4/2
K:Eb
V:1 treble 
V:2 treble 
V:3 bass 
V:4 bass 
V:1
 [EG]2 | [EG]4 [EG]4 [EA]6 [EG]2 | ([EG]2 [DF][EG] [FA]2) [EG]2 [DF]8 | %3
 [FA]4 [FA]2 ([GB][Ac]) [FA]6 [Ac]2 | ([GB]2 [FA]2 [EG]2) ([DF]/[EG]/[FA]) [EG]6 [EB]2 | %5
 [EB]4 [EB]4 [EB]6 (Bc) x | [E_d]6 [Ec]2 [EB]6 [GB]2 x2 | ([GB]2 [FA]4) [EG]2 [EG]2 [DF]4 [GB]2 | %8
 ([GB]2 [FA][EG] [FA]2) [EG]2 [DF]6 [EG]2 | [EG]4 ([EG]2 [FA][GB]) [EG]6 [EG]2 | %10
 ([CF]2 [B,E]2 A2) [EG]2 [DF]6 [DB]2 | [EB]4 [Ge]4 [GB]6 [EB]2 | ([DA]2 [EG]2 [DF]3) E E6 |] %13
V:2
 x2 | x16 | x16 | x16 | x16 | x14 E3 | x18 | x16 | x16 | x16 | x4 (CD) x10 | x16 | x7 E E6 |] %13
V:3
 [E,B,]2 | [E,B,]4 [E,B,]4 [E,B,]6 [E,B,]2 | [B,,B,]6 [B,,B,]2 [B,,B,]8 | %3
 [B,,D]4 [B,,D]2 [B,,D]2 [B,,D]6 [B,,D]2 | (E2 B,4) [B,,B,]2 [E,B,]6 [E,G,]2 | %5
 [E,G,]4 [E,G,]4 [E,G,]6 (G,A,) x | B,6 z2 A,2 [E,G,]6 [E,B,]2 | %7
 [B,,B,]4 [B,,B,]4 [B,,B,]4 [B,,B,]4 | B,6 [E,B,]2 [B,,B,]6 [E,B,]2 | %9
 [E,B,]4 [E,B,]4 [E,B,]6 [E,B,]2 | ([A,C]2 G,2) [F,A,]2 [E,B,]2 [B,,B,]6 [B,,F,]2 | %11
 [E,G,]4 [E,B,]4 [E,E]6 [G,B,]2 | B,4 [B,,A,]3 [E,G,] [E,G,]6 |] %13
V:4
 x2 | x16 | x16 | x16 | B,,6 x10 | x14 E,2 x | E,4 E,4 x10 | x16 | (B,,4 D,2) x10 | x16 | %10
 x2 G,2 x12 | x16 | F,2 E,2 x10 |] %13

